svgs/sharp-regular/truck-plane.svg

<svg xmlns="http://www.w3.org/2000/svg" viewBox="0 0 640 512"><!--! Font Awesome Pro 6.6.0 by @fontawesome - https://fontawesome.com License - https://fontawesome.com/license (Commercial License) Copyright 2024 Fonticons, Inc. --><path d="M224 0c-14.7 0-27.2 6.3-36.7 13.9c-9.5 7.6-17.3 17.4-23.3 27.5c-11.9 19.6-20 44.3-20 64.6l0 59.6L10.1 260.4 0 267.6 0 280l0 80 0 34.6 32.4-12.2L144 340.6l0 15.4L89.6 396.8 80 404l0 12 0 72 0 24 24 0 16 0 3.6 0 3.4-1.1L224 481.1l32 9.8 0-50.2-24.9-7.7-7.1-2.2-7.1 2.2L128 460.4l0-32.4 54.4-40.8L192 380l0-12 0-62 0-34.6-32.4 12.2L48 325.4l0-33 133.9-94.8 10.1-7.2 0-12.4 0-72c0-9.6 4.6-25.8 13-39.7c4.1-6.7 8.4-11.8 12.3-14.9c3.9-3.1 6.1-3.3 6.7-3.3c2.4 0 10.1 3 19.2 18.1c5.9 9.8 9.8 20.8 11.6 29.9l1.1 0 47.4 0c-2-18-9.1-38.1-19-54.6C273.4 23.1 253.1 0 224 0zM592 176l0 120.2-2.5-7.4-16-48L562.6 208 528 208l-128 0-34.6 0-10.9 32.8-16 48-2.5 7.4L336 176l256 0zM336 416l0-64 48 0 160 0 48 0 0 64-32 0-192 0-32 0zm272 48l32 0 0-48 0-240 0-48-48 0-256 0-48 0 0 48 0 240 0 48 32 0 0 48 48 0 0-48 192 0 0 48 48 0 0-48zM384 304l16-48 128 0 16 48-50.6 0-58.8 0L384 304zM552 408a24 24 0 1 0 0-48 24 24 0 1 0 0 48zM400 384a24 24 0 1 0 -48 0 24 24 0 1 0 48 0z"/></svg>

<svg xmlns="http://www.w3.org/2000/svg" viewBox="0 0 640 512"><!--! Font Awesome Pro 6.4.0 by @fontawesome - https://fontawesome.com License - https://fontawesome.com/license (Commercial License) Copyright 2023 Fonticons, Inc. --><path d="M224 0c-14.7 0-27.2 6.3-36.7 13.9c-9.5 7.6-17.3 17.4-23.3 27.5c-11.9 19.6-20 44.3-20 64.6v59.6L10.1 260.4 0 267.6V280v80 34.6l32.4-12.2L144 340.6l0 15.4L89.6 396.8 80 404v12 72 24h24 16 3.6l3.4-1.1L224 481.1l32 9.8V440.7l-24.9-7.7-7.1-2.2-7.1 2.2L128 460.4V428l54.4-40.8L192 380V368l0-62 0-34.6-32.4 12.2L48 325.4v-33l133.9-94.8 10.1-7.2V178 106c0-9.6 4.6-25.8 13-39.7c4.1-6.7 8.4-11.8 12.3-14.9c3.9-3.1 6.1-3.3 6.7-3.3c2.4 0 10.1 3 19.2 18.1c5.9 9.8 9.8 20.8 11.6 29.9H256h47.4c-2-18-9.1-38.1-19-54.6C273.4 23.1 253.1 0 224 0zM592 176V296.2l-2.5-7.4-16-48L562.6 208H528 400 365.4l-10.9 32.8-16 48-2.5 7.4V176H592zM336 416V352h48H544h48v64H560 368 336zm272 48h32V416 176 128H592 336 288v48V416v48h32v48h48V464H560v48h48V464zM384 304l16-48 128 0 16 48H493.4 434.6 384zM552 408a24 24 0 1 0 0-48 24 24 0 1 0 0 48zM400 384a24 24 0 1 0 -48 0 24 24 0 1 0 48 0z"/></svg>
